Newaita/actions/16/format-text-direction-ltr.svg

<?xml version="1.0" encoding="UTF-8"?>
<svg xmlns="http://www.w3.org/2000/svg" xmlns:xlink="http://www.w3.org/1999/xlink" width="16pt" height="16pt" viewBox="0 0 16 16" version="1.1">
<g id="surface1">
<path style=" stroke:none;fill-rule:nonzero;fill:rgb(25.882354%,25.882354%,25.882354%);fill-opacity:1;" d="M 6.613281 0.785156 C 5.140625 0.785156 3.859375 1.382812 3.175781 2.273438 L 4.273438 2.960938 C 4.691406 2.453125 5.496094 2.109375 6.425781 2.109375 L 6.804688 2.109375 C 8.167969 2.109375 9.261719 2.847656 9.261719 3.761719 L 9.261719 5.746094 C 8.558594 5.277344 7.632812 4.992188 6.613281 4.992188 C 4.417969 4.992188 2.644531 6.320312 2.644531 7.96875 L 2.644531 8.300781 L 2.671875 8.300781 C 2.886719 9.792969 4.566406 10.945312 6.613281 10.945312 C 7.632812 10.945312 8.558594 10.664062 9.261719 10.191406 L 9.261719 10.875 L 10.585938 10.875 L 10.585938 3.761719 C 10.585938 2.113281 8.8125 0.785156 6.613281 0.785156 Z M 6.425781 6.316406 L 6.804688 6.316406 C 8.167969 6.316406 9.261719 7.054688 9.261719 7.96875 C 9.261719 8.886719 8.167969 9.625 6.804688 9.625 L 6.425781 9.625 C 5.0625 9.625 3.96875 8.886719 3.96875 7.96875 C 3.96875 7.054688 5.0625 6.316406 6.425781 6.316406 Z M 6.425781 6.316406 "/>
<path style=" stroke:none;fill-rule:nonzero;fill:rgb(36.078432%,41.960785%,75.294119%);fill-opacity:1;" d="M 12.570312 11.371094 C 12.386719 11.371094 12.238281 11.519531 12.238281 11.703125 L 12.238281 12.695312 L 8.601562 12.695312 C 8.417969 12.695312 8.269531 12.816406 8.269531 12.96875 L 8.269531 13.742188 C 8.269531 13.894531 8.417969 14.015625 8.601562 14.015625 L 12.238281 14.015625 L 12.238281 15.007812 C 12.238281 15.191406 12.386719 15.339844 12.570312 15.339844 C 12.636719 15.339844 12.707031 15.316406 12.761719 15.277344 L 15.078125 13.625 C 15.164062 13.5625 15.214844 13.460938 15.214844 13.355469 C 15.214844 13.25 15.164062 13.148438 15.078125 13.085938 L 12.761719 11.433594 C 12.707031 11.394531 12.640625 11.371094 12.574219 11.371094 C 12.574219 11.371094 12.570312 11.371094 12.570312 11.371094 Z M 12.570312 11.371094 "/>
</g>
</svg>

<svg xmlns="http://www.w3.org/2000/svg" width="16pt" height="16pt" viewBox="0 0 16 16"><path d="M6.613.785c-1.472 0-2.754.598-3.437 1.488l1.097.688c.418-.508 1.223-.852 2.153-.852h.379c1.363 0 2.457.739 2.457 1.653v1.984c-.703-.469-1.63-.754-2.649-.754-2.195 0-3.968 1.328-3.968 2.977V8.3h.027c.215 1.492 1.894 2.644 3.941 2.644 1.02 0 1.946-.28 2.649-.754v.684h1.324V3.762c0-1.649-1.774-2.977-3.973-2.977zm-.187 5.531h.379c1.363 0 2.457.739 2.457 1.653 0 .918-1.094 1.656-2.457 1.656h-.38c-1.362 0-2.456-.738-2.456-1.656 0-.914 1.094-1.653 2.457-1.653zm0 0" fill="#78909c"/><path d="M12.57 11.371a.332.332 0 0 0-.332.332v.992H8.602c-.184 0-.332.121-.332.274v.773c0 .153.148.274.332.274h3.636v.992a.332.332 0 0 0 .524.27l2.316-1.653a.335.335 0 0 0 0-.54l-2.316-1.651a.327.327 0 0 0-.188-.063h-.004zm0 0" fill="#5c6bc0"/></svg>
